X: 28584
T: Murray River, The
R: jig
M: 6/8
K: Amajor
|:A/B/|c2 c cBA|E3- E2 A/B/|c2 c dcB|F3- F2 B/c/|
d2 d dcB|g2 g g2 f|1 fee e^de|fed c2:|2 e2 e dcB|A3- A2||
|:E/D/|CA,A, A,CE|D=G,G, G,2 B,|A,CE AGA|BEE E2 D|
CA,A, A,2 E|D=G,G, G,2 F|EAA GAB|cAA A2:|

